X:1
T:Title
%%score { ( 1 3 4 ) | ( 2 5 ) }
L:1/8
M:3/4
K:Ab
V:1 treble nm="Grand Piano"
V:3 treble 
V:4 treble 
V:2 bass 
V:5 bass 
V:1
 z2 z[Q:1/4=82] [CE] [CA][CF] | [DG]3 [DE] [Gd][GB] | c3 c cB | A3 =A [=DB][DF] | %4
 [DB]3 [CE] [CA][CF] | [DG]3 [DE] [Gd][GB] | [Ac]4 [_Ge]2 | [Fe][Fd] [EGc]2 [DGB]2 | %8
[M:3/8] [CEA]3 | z BA |[M:3/4] z D z d c_c | c-[Ec-] cc cB | A4 .B2 | B4 z2 | e4 z2 | %15
[M:7/8] F2 z z2 d2 |[M:3/4] c[CAc] [EGc]2 [DGB]2 |[M:3/8] [CEA]3 |] %18
V:2
 z2 z [A,,A,] [A,,E,][A,,E,] | [B,,E,]3 [E,G,] [E,B,][E,E] | [A,EA]3 [A,CE] [G,C=E][G,CE] | %3
 [F,CF]3[K:bass] [F,CE] [B,,B,][B,,A,] | [E,G,]3 [A,,A,] [A,,E,][A,,E,] | %5
 [B,,E,]3 [E,G,] [E,B,][E,E] | [A,E]4 [C,A,]2 | [D,A,][D,A,] E,2 E,2 |[M:3/8] A,,3 | %9
 c[K:bass] [A,,E,]2 |[M:3/4] [E,D][E,B,] [E,B,]2 [E,G,E]2 | [A,,A,][A,,A,] A,2 [G,C=E]2 | %12
 [F,CF][F,C] [F,C]2 [B,,A,]2 | [E,G,E][B,,A,] [E,G,][E,G,E] [E,G,E][D,G,] | %14
 [C,A,][C,A,] [C,A,]2 [C,A,]2 |[M:7/8] D z z z z z2 |[M:3/4] [E,A,E]E, E,2 E,2 |[M:3/8] A,,3 |] %18
V:3
 x6 | x6 | x6 | x6 | x6 | x6 | x6 | x6 |[M:3/8] x3 | z C2 |[M:3/4] G4 z2 | .E2 E2 z2 | %12
 z F z c =D-[DF] | z =D _DB c[EB] | EE z c AG |[M:7/8] z E [Dd]3 z =E |[M:3/4] x6 |[M:3/8] x3 |] %18
V:4
 x6 | x6 | x6 | x6 | x6 | x6 | x6 | x6 |[M:3/8] x3 | x3 |[M:3/4] z2 D2 z2 | x6 | z2 F2 z2 | x6 | %14
 z2 E2 E2 |[M:7/8] x7 |[M:3/4] x6 |[M:3/8] x3 |] %18
V:5
 x6 | x6 | x6 | x3[K:bass] x3 | x6 | x6 | x6 | x6 |[M:3/8] x3 | x[K:bass] x2 |[M:3/4] x6 | x6 | %12
 x6 | x6 | x6 |[M:7/8] [D,A,]-[C,D,-A,-=A,] [B,,D,-A,-B,]3 [D,-A,-F][D,A,] |[M:3/4] x6 | %17
[M:3/8] x3 |] %18

